svg/material-icons/apartment/materialiconsround/20px.svg

<svg xmlns="http://www.w3.org/2000/svg" width="20" height="20" viewBox="0 0 20 20"><path d="M14 9V5c0-.55-.45-1-1-1H8c-.55 0-1 .45-1 1v2H4c-.55 0-1 .45-1 1v7c0 .55.45 1 1 1h5.5c.28 0 .5-.22.5-.5V13h1v2.5c0 .28.22.5.5.5H16c.55 0 1-.45 1-1v-5c0-.55-.45-1-1-1h-2zm-8 5H5v-1h1v1zm0-2H5v-1h1v1zm0-2H5V9h1v1zm4 1H9v-1h1v1zm0-2H9V8h1v1zm0-2H9V6h1v1zm2 4h-1v-1h1v1zm0-2h-1V8h1v1zm0-2h-1V6h1v1zm3 7h-1v-1h1v1zm0-2h-1v-1h1v1z"/></svg>

<svg xmlns="http://www.w3.org/2000/svg" enable-background="new 0 0 20 20" height="20" viewBox="0 0 20 20" width="20"><g><rect fill="none" height="20" width="20"/></g><g><path d="M14,9V5c0-0.55-0.45-1-1-1H8C7.45,4,7,4.45,7,5v2H4C3.45,7,3,7.45,3,8v7c0,0.55,0.45,1,1,1h5.5c0.28,0,0.5-0.22,0.5-0.5V13 h1v2.5c0,0.28,0.22,0.5,0.5,0.5H16c0.55,0,1-0.45,1-1v-5c0-0.55-0.45-1-1-1H14z M6,14H5v-1h1V14z M6,12H5v-1h1V12z M6,10H5V9h1V10z M10,11H9v-1h1V11z M10,9H9V8h1V9z M10,7H9V6h1V7z M12,11h-1v-1h1V11z M12,9h-1V8h1V9z M12,7h-1V6h1V7z M15,14h-1v-1h1V14z M15,12 h-1v-1h1V12z"/></g></svg>
